X:153
T:Brighthelmstone Hot Bath THO3.153
O:England;London
M:6/8
L:1/8
Z:vmp. Peter Dunk 2011.from a transcription by Fynn Titford-Mock 2006-9
B:Thompson's Compleat Collection of 200 Favourite Country Dances Vol. III.1765-72
Q:3/8=100
K:D
dfa gec|dfa gec|dfd cge|ced cBA|dfa gec|dfa gec|dfd Bge|cBc d3:|
|:FGA AB=c|B^cd cde|dAd eAe|faf {f}Te3|FGA AB=c|B^cd cde|dag fed| ABc d3:|

